dist/assets/svg/icon_2cameras.svg

<?xml-stylesheet type="text/css" href="/css/style.css"?>
<svg class="icon__svg"  xmlns="http://www.w3.org/2000/svg" viewBox="0 0 100 125" x="0px" y="0px"><path  d="M 16.43093,53.554579 11.26343,55.534504 5,50.211549 13.85073,46.820397 z" color="#000"/><path d="M 13.84181,42.76608 19.13357,56.577305 41.47235,48.018217 36.18059,34.206994 z" color="#000"/><path d="m 46.73759,17.985591 0,45.042949 -10.85998,0 -2.2117,-5.741896 c 1.5643,-1.221026 2.23559,-3.352892 1.48864,-5.302392 l -8.64828,3.317539 c 0.74695,1.949499 2.628,3.114129 4.60769,2.97728 l 2.89221,7.499907 12.73142,0 0,20.221022 2.75044,0 0,-30.598966 13.18509,0 3.45931,-6.323174 c 1.9435,0.400925 3.98901,-0.507481 4.99049,-2.33929 l -8.1379,-4.437564 c -1.00146,1.831811 -0.62095,4.024516 0.76559,5.444168 l -2.69373,4.905421 -11.56885,0 0,-34.665004 z" color="#000"/><path d="M 83.22417,47.408046 88.07971,50.062637 95,45.627098 l -8.31642,-4.5467 z" color="#000"/><path d="m 63.37927,24.018444 -7.10293,12.986607 c 8.74636,4.793351 15.92853,8.684518 23.86076,13.043318 L 87.24004,37.061761 C 78.49367,32.26841 71.3115,28.377244 63.37927,24.018444 z" color="#000"/></svg>

<?xml-stylesheet type="text/css" href="/css/svg.css"?><svg class="icon__svg" xmlns="http://www.w3.org/2000/svg" viewBox="0 0 100 125"><path d="M16.43 53.555l-5.167 1.98L5 50.212l8.85-3.392zm-2.588-10.789l5.292 13.811 22.338-8.559-5.291-13.811z" color="#000"/><path d="M46.738 17.986v45.043h-10.86l-2.212-5.742c1.564-1.221 2.236-3.353 1.489-5.303l-8.649 3.318c.747 1.95 2.628 3.114 4.608 2.977l2.892 7.5h12.732V86h2.75V55.401h13.185l3.46-6.323c1.943.4 3.988-.508 4.99-2.34l-8.138-4.437c-1.001 1.832-.62 4.025.766 5.444l-2.694 4.906H49.488V17.986zm36.486 29.422l4.856 2.655L95 45.627l-8.316-4.547z" color="#000"/><path d="M63.38 24.018l-7.104 12.987c8.747 4.793 15.929 8.685 23.861 13.043l7.103-12.986c-8.746-4.794-15.928-8.685-23.86-13.044z" color="#000"/></svg>
